!! 00000] TT[WS
!!!OTL: Zai liushu
!!!ARE: Asia, China, Shanxi Baode
!! Ethnic Group: Han
!! WII, 81 (2)
!!!SCT: J0521
!!!YEM: Copyright 1995, estate of Helmut Schaffrath.
**kern
*ICvox
*Ivox
*M4/4
*k[b-]
*F:
{4cc
4a
4ff
4gg
=1
8dd
8cc
8a
8cc
2g
=2
8g
16g
16f
8d
8f
2g}
=3
{8a
8cc
4g
8d
16d
16f
4g
=4
4ff
8dd
8ff
4cc
4a
=5
4g
8a
8f
2c}
=6
{8g
8g
4c
8g
8g
4c
=7
8g
8dd
4cc
8cc
8d
4f
=8
8g
16a
16a
8f
8d
2c}
==
!!!AGN: Xiaodiao. Qingge, Sichun
!!!ONB: ESAC (Essen Associative Code) Database: CHINA
!!!AMT: simple quadruple
!!!AIN: vox
!!!EED: Helmut Schaffrath
!!!EEV: 1.0
*-
